X:1833
T:Excelsior Schottische. GHW.042
O:england
M:2/4
L:1/8
Q:240
S:George H.Watson,MS,Swanton Abbott,Norfolk,1850-1880
R:Schottische
A:Norfolk
N:C part key signature of G added as implied by notation
K:D
a>^g|b2a2f2 f>e|g2f2d2 c>B|A>^G A>c e2 c>B|A>^G A>c f2 a>^g|
b2a2f2 f>f|g2f2d2 c>B|A>B c>d e>f f>e|d2d2d2:|
|:c>d|e>d e>c A2 A>G|F>A d>f a2 g>f|e>g f>e d>f e>d|c>e d>B A2 F>G|
A>^G A>B f2 d>c|B>G B>d g2 f>e|d>f e>d c>A B>c|d2d2d2:|
K:G
|:B>c|d>e d>^c d2 d>e|d2 b2 f2 a>g|f2 c2 f3 e|d>e d>B G2 B>c|
d>e d>^c d2 g>f|e>f e>d e2 a>g|f>e d>c B>d c>A|G2G2G2||
